X:260
T:The Silver Whistle
T:An Fhideag Airgid
M:4/4
L:1/8
R:reel
C:Davy Garrett
D:The Tannahill Weavers: Alchemy
N:Learned from The Tannahill Weavers: Alchemy
N:They play it in Cm
Z:Michael Abraham Shulman
N:Set with the Johnstown Reel
K:Bm
|:BF (3FFF AFEF|BF (3FFF (3Bcd eg|f2df ecde|fdBd cFFF|
BF (3FFF AFEF|BF (3FFF (3Bcd eg|f2df ecde|fdcd B4:|
|:G3F Gdcd|D2FD ADFD|G3F Ggfg|efde (3Bcd AF|
G3F Gdcd|D2FD ADFD|G3F Ggfg|1 efdB e4:|2 efdB e2dc|
